dist/img/nav-logo.svg

<svg width="96" height="20" viewBox="0 0 96 20" fill="none" xmlns="http://www.w3.org/2000/svg">
<path d="M7.81586 5.8893L8.035 5.14972H9.73331L9.06677 7.98936H7.35933C7.33194 7.56022 7.14019 7.20412 6.76583 6.95759C6.38235 6.6928 5.8619 6.5741 5.18623 6.5741C4.63839 6.5741 4.18185 6.6928 3.87141 6.91194C3.56097 7.13107 3.39661 7.41413 3.39661 7.75196C3.39661 8.0624 3.48792 8.2998 3.70706 8.47328C3.92619 8.63764 4.35533 8.85677 5.02187 9.12156L5.56972 9.3407C6.72018 9.81549 7.47803 10.2994 7.88891 10.7742C8.29979 11.249 8.4824 11.8242 8.4824 12.5456C8.4824 13.4495 8.14457 14.1708 7.45064 14.7187C6.7567 15.2665 5.75233 15.5313 4.4649 15.5313C3.25052 15.5313 2.36485 15.2483 1.83527 14.673L1.71657 15.3396H0L0.66654 12.4999H2.38311C2.38311 12.9747 2.60224 13.3582 3.00399 13.623C3.40574 13.8878 3.96272 14.0247 4.65665 14.0247C5.25014 14.0247 5.73407 13.906 6.09016 13.6686C6.44626 13.4312 6.61974 13.1208 6.61974 12.7373C6.61974 12.3538 6.47365 12.0434 6.16321 11.806C5.85277 11.5686 5.32319 11.2764 4.5836 10.9934L3.84402 10.7103C3.07704 10.3725 2.50181 9.98898 2.12745 9.55984C1.75309 9.13069 1.57961 8.60111 1.57961 7.98023C1.57961 7.45065 1.7257 6.94846 2.03614 6.51932C2.34659 6.09018 2.77573 5.70669 3.35096 5.46929C3.92619 5.2045 4.54708 5.0858 5.24101 5.0858C6.23626 5.00363 7.12193 5.28668 7.81586 5.8893Z" fill="white"/>
<path d="M20.5257 9.23114C20.5257 10.4455 20.261 11.5503 19.7131 12.5273C19.1653 13.5043 18.4257 14.2439 17.4944 14.8009C16.563 15.3487 15.5587 15.6135 14.463 15.6135C13.559 15.6135 12.7464 15.4217 12.0707 15.0656C11.3951 14.7095 10.8564 14.18 10.4911 13.5408C10.1076 12.8743 9.91589 12.1073 9.91589 11.249C9.91589 10.0529 10.1989 8.95721 10.7742 7.99849C11.3494 7.02151 12.1164 6.28192 13.0477 5.72495C14.0064 5.17711 15.0291 4.91232 16.1339 4.91232C17.4761 4.91232 18.5444 5.29581 19.3388 6.08105C20.124 6.82064 20.5257 7.87066 20.5257 9.23114ZM14.5543 13.7965C15.3213 13.7965 15.9878 13.5773 16.5813 13.1756C17.1748 12.7738 17.6587 12.1986 17.9874 11.5047C18.3253 10.8107 18.4896 10.0438 18.4896 9.25853C18.4896 8.4459 18.2522 7.82501 17.7683 7.36848C17.2935 6.91194 16.6452 6.70194 15.7869 6.70194C15.093 6.70194 14.4447 6.89368 13.8786 7.29543C13.3034 7.69718 12.8286 8.22676 12.4907 8.8933C12.1529 9.55984 11.9886 10.2812 11.9886 11.0481C12.016 12.8651 12.8834 13.7965 14.5543 13.7965Z" fill="white"/>
<path d="M38.2302 9.23114C38.2302 10.4455 37.9654 11.5503 37.4176 12.5273C36.8697 13.5043 36.1302 14.2439 35.1988 14.8009C34.2675 15.3487 33.2631 15.6135 32.1674 15.6135C31.2635 15.6135 30.4509 15.4217 29.7752 15.0656C29.1087 14.7095 28.5608 14.18 28.1956 13.5408C27.8121 12.8743 27.6204 12.1073 27.6204 11.249C27.6204 10.0529 27.9034 8.95721 28.4786 7.99849C29.0539 7.02151 29.8209 6.28192 30.7522 5.72495C31.7109 5.17711 32.7335 4.91232 33.8384 4.91232C35.1806 4.91232 36.2489 5.29581 37.0432 6.08105C37.8285 6.82064 38.2302 7.87066 38.2302 9.23114ZM32.2587 13.7965C33.0257 13.7965 33.6923 13.5773 34.2858 13.1756C34.8793 12.7738 35.3632 12.1986 35.6919 11.5047C36.0297 10.8107 36.1941 10.0438 36.1941 9.25853C36.1941 8.4459 35.9567 7.82501 35.4727 7.36848C34.998 6.91194 34.3497 6.70194 33.4914 6.70194C32.7975 6.70194 32.1492 6.89368 31.5831 7.29543C31.0078 7.69718 30.533 8.22676 30.1952 8.8933C29.8574 9.55984 29.693 10.2812 29.693 11.0481C29.7295 12.8651 30.5604 13.7965 32.2587 13.7965Z" fill="white"/>
<path d="M46.3107 6.82062C45.0689 6.82062 44.0372 7.22237 43.2519 8.06239C42.4667 8.90241 41.8915 10.0711 41.5536 11.5777L41.1245 13.5865H42.7954L42.3937 15.303H37.4448L37.8466 13.5865H39.1888L40.741 6.8754H39.1614L39.5905 5.13144H42.8867L42.2202 8.02587C42.8137 6.94845 43.4619 6.18147 44.1559 5.70668C44.8498 5.23188 45.7537 4.98535 46.8586 4.98535H47.2603L46.8038 6.84801C46.5481 6.83888 46.3838 6.82062 46.3107 6.82062Z" fill="white"/>
<path d="M62.4173 4.91232C63.2756 4.91232 64.0699 5.14972 64.7365 5.63364C65.403 6.11757 65.9326 6.75672 66.2887 7.56935C66.6448 8.38198 66.8365 9.24026 66.8365 10.199C66.8365 11.1577 66.6722 12.0434 66.3069 12.856C65.9509 13.6686 65.4487 14.3169 64.7821 14.7917C64.1338 15.2665 63.376 15.513 62.5086 15.513C61.4312 15.513 60.4542 15.0839 59.5411 14.1708V15.3396H54.5466V13.0021H56.318V3.06792H54.5466V0.730469H59.5411V6.31845C60.3629 5.38712 61.3216 4.91232 62.4173 4.91232ZM61.5316 12.9565C62.1525 12.9565 62.6273 12.6917 62.9925 12.1895C63.3486 11.6873 63.5221 10.9934 63.5221 10.1351C63.5221 9.29505 63.3577 8.6559 62.9925 8.19937C62.6364 7.77022 62.1525 7.53283 61.559 7.53283C60.9381 7.53283 60.4359 7.79762 60.0798 8.2998C59.7237 8.80199 59.5502 9.46853 59.5502 10.3086C59.5502 11.0938 59.742 11.7147 60.0981 12.2169C60.4359 12.7191 60.9381 12.9565 61.5316 12.9565Z" fill="white"/>
<path d="M77.3552 9.21285V12.993H79.0078V15.3304H74.132V14.5452C73.2007 15.1661 72.2876 15.5039 71.3563 15.5039C70.2332 15.5039 69.3476 15.2208 68.681 14.6456C68.0145 14.0704 67.6766 13.3034 67.6766 12.3264C67.6766 11.2946 68.0601 10.4638 68.7997 9.84287C69.5393 9.22198 70.5437 8.91154 71.7854 8.91154C72.2146 8.91154 72.5981 8.95719 72.9359 9.05763C73.2737 9.14894 73.6755 9.32242 74.1046 9.53242V8.71979C74.1046 8.19021 73.9403 7.78846 73.6298 7.47802C73.292 7.16758 72.8172 7.02149 72.1689 7.02149C71.475 7.02149 70.8267 7.28628 70.3063 7.83412L67.704 7.35932C68.4893 5.76145 70.1419 4.94882 72.6255 4.94882C74.3238 4.94882 75.5382 5.30492 76.2777 5.99885C76.9899 6.65626 77.3552 7.75194 77.3552 9.21285ZM72.0685 13.4586C72.6437 13.4586 73.3377 13.1025 74.1229 12.4086V11.5047C73.429 11.0481 72.7807 10.8381 72.2146 10.8381C71.7581 10.8381 71.402 10.9568 71.1372 11.1759C70.8998 11.3951 70.7811 11.7055 70.7811 12.1073C70.7537 13.0112 71.2102 13.4586 72.0685 13.4586Z" fill="white"/>
<path d="M84.5957 12.7921C85.1436 12.7921 85.7462 12.5547 86.3854 12.0525V7.51455H84.8331V5.12231H89.6359V12.9564H91.3068V15.2939H86.4036V14.4539C85.3992 15.1204 84.3949 15.4582 83.4361 15.4582C82.4592 15.4582 81.6922 15.1935 81.1443 14.6456C80.5965 14.0978 80.3317 13.3308 80.3317 12.3721V7.53281H78.8069V5.14971H83.564V11.5503C83.564 12.0251 83.637 12.3629 83.8014 12.5273C83.9749 12.7008 84.1849 12.7921 84.5957 12.7921Z" fill="white"/>
<path d="M93.6626 12.9564H96V15.2939H93.6626V12.9564Z" fill="#F4B301"/>
<path d="M21.5758 5.24101H23.6302L24.032 3.46966C24.1781 2.84877 24.3698 2.31919 24.6255 1.89005C24.8903 1.46091 25.2007 1.10481 25.5294 0.812631C25.8855 0.52958 26.269 0.337835 26.7255 0.191744C27.1547 0.0730454 27.6295 0 28.159 0C28.4695 0 28.7525 0.027392 29.0173 0.0456534C29.2821 0.0913068 29.5195 0.13696 29.7387 0.191744C29.9578 0.237398 30.1404 0.310443 30.3139 0.383489C30.4782 0.456534 30.6243 0.529579 30.743 0.575233L29.7387 2.0544C29.5743 1.9357 29.3369 1.83527 29.0447 1.77135C28.7617 1.68005 28.4238 1.65265 28.086 1.65265C27.5564 1.65265 27.1273 1.79874 26.7712 2.0818C26.4151 2.36485 26.1503 2.86703 25.9859 3.56097L25.6025 5.23188H28.3234L27.9217 6.90279H25.219L22.2515 19.8318H20.2701L23.2376 6.90279H21.1832L21.5758 5.24101Z" fill="white"/>
<path d="M48.0549 5.00362H49.7258L50.228 2.90356L52.2824 2.06354L51.6158 5.00362H53.7159L53.2594 6.86628H51.1593L49.8445 12.3903C49.8171 12.509 49.7714 12.6551 49.7532 12.7738C49.7258 12.9199 49.7075 13.0386 49.7075 13.203C49.7075 13.486 49.7806 13.7052 49.9449 13.8239C50.1093 13.9426 50.3467 14.0156 50.6845 14.0156C51.0406 14.0156 51.4971 13.9243 52.0267 13.7052L52.1911 15.093C51.8532 15.2574 51.5245 15.3761 51.2141 15.4765C50.9037 15.5678 50.5476 15.6226 50.1641 15.6226C49.7623 15.6226 49.3788 15.5769 49.041 15.4765C48.7032 15.3852 48.4201 15.2117 48.201 14.9743C47.9818 14.7369 47.8449 14.4447 47.7718 14.0704C47.6988 13.6869 47.7262 13.2304 47.8449 12.7099L49.2784 6.9028H47.6257L48.0549 5.00362Z" fill="white"/>
</svg>

<svg width="96" height="20" fill="none" xmlns="http://www.w3.org/2000/svg"><path d="M7.816 5.89l.219-.74h1.698l-.666 2.84H7.359a1.279 1.279 0 00-.593-1.032c-.384-.265-.904-.384-1.58-.384-.548 0-1.004.119-1.315.338-.31.22-.474.502-.474.84 0 .31.09.548.31.721.22.165.648.384 1.315.649l.548.219c1.15.474 1.908.958 2.319 1.433.41.475.593 1.05.593 1.772 0 .904-.337 1.625-1.031 2.173s-1.699.812-2.986.812c-1.214 0-2.1-.283-2.63-.858l-.118.667H0l.667-2.84h1.716c0 .475.22.858.621 1.123.402.265.959.402 1.653.402.593 0 1.077-.119 1.433-.356.356-.238.53-.548.53-.932a1.11 1.11 0 00-.457-.931c-.31-.237-.84-.53-1.58-.813l-.739-.283c-.767-.338-1.342-.721-1.717-1.15-.374-.43-.547-.959-.547-1.58 0-.53.146-1.032.456-1.46.31-.43.74-.813 1.315-1.05.575-.265 1.196-.384 1.89-.384.995-.082 1.88.2 2.575.803zm12.71 3.341c0 1.214-.265 2.32-.813 3.296a6.03 6.03 0 01-2.219 2.274 5.85 5.85 0 01-3.031.813c-.904 0-1.717-.192-2.392-.548a3.911 3.911 0 01-1.58-1.525c-.383-.667-.575-1.434-.575-2.292 0-1.196.283-2.292.858-3.25a6.381 6.381 0 012.274-2.274 6.094 6.094 0 013.086-.813c1.342 0 2.41.384 3.205 1.17.785.739 1.187 1.789 1.187 3.15zm-5.972 4.566a3.53 3.53 0 002.027-.621 4.14 4.14 0 001.406-1.671 5.115 5.115 0 00.503-2.246c0-.813-.238-1.434-.722-1.89-.474-.457-1.123-.667-1.981-.667a3.24 3.24 0 00-1.908.593 4.298 4.298 0 00-1.388 1.598 4.705 4.705 0 00-.502 2.155c.027 1.817.894 2.748 2.565 2.748zM38.23 9.231c0 1.214-.265 2.32-.812 3.296a6.03 6.03 0 01-2.22 2.274 5.85 5.85 0 01-3.03.813c-.904 0-1.717-.192-2.393-.548a3.968 3.968 0 01-1.58-1.525c-.383-.667-.575-1.434-.575-2.292 0-1.196.283-2.292.859-3.25a6.382 6.382 0 012.273-2.274 6.094 6.094 0 013.086-.813c1.343 0 2.41.384 3.205 1.17.785.739 1.187 1.789 1.187 3.15zm-5.971 4.566c.767 0 1.433-.22 2.027-.621a4.14 4.14 0 001.406-1.671 5.114 5.114 0 00.502-2.246c0-.813-.237-1.434-.721-1.89-.475-.457-1.123-.667-1.982-.667a3.24 3.24 0 00-1.908.593 4.296 4.296 0 00-1.388 1.598 4.705 4.705 0 00-.502 2.155c.037 1.817.867 2.748 2.566 2.748zM46.31 6.82c-1.241 0-2.273.402-3.058 1.242-.785.84-1.36 2.01-1.698 3.516l-.43 2.008h1.671l-.401 1.717h-4.95l.403-1.717h1.342l1.552-6.71h-1.58l.43-1.745h3.296l-.667 2.895c.594-1.078 1.242-1.845 1.936-2.32.694-.474 1.598-.72 2.703-.72h.401l-.456 1.862c-.256-.01-.42-.027-.493-.027zm16.107-1.908c.859 0 1.653.238 2.32.722a4.665 4.665 0 011.552 1.935c.356.813.547 1.671.547 2.63 0 .959-.164 1.844-.53 2.657-.355.813-.857 1.46-1.524 1.936-.648.475-1.406.721-2.273.721-1.078 0-2.055-.43-2.968-1.342v1.169h-4.994v-2.338h1.771V3.068h-1.771V.73h4.994v5.588c.822-.93 1.78-1.406 2.876-1.406zm-.885 8.045c.62 0 1.095-.265 1.46-.768.357-.502.53-1.196.53-2.054 0-.84-.164-1.48-.53-1.936a1.794 1.794 0 00-1.433-.666 1.74 1.74 0 00-1.48.767c-.355.502-.529 1.169-.529 2.009 0 .785.192 1.406.548 1.908.338.502.84.74 1.434.74zm15.823-3.744v3.78h1.653v2.337h-4.876v-.785c-.931.621-1.844.959-2.776.959-1.123 0-2.008-.283-2.675-.858-.666-.576-1.004-1.343-1.004-2.32 0-1.031.383-1.862 1.123-2.483s1.744-.931 2.985-.931c.43 0 .813.045 1.15.146.339.09.74.264 1.17.474V8.72c0-.53-.165-.932-.475-1.242-.338-.31-.813-.457-1.461-.457-.694 0-1.342.265-1.863.813l-2.602-.475c.785-1.598 2.438-2.41 4.922-2.41 1.698 0 2.912.356 3.652 1.05.712.657 1.077 1.753 1.077 3.214zm-5.287 4.246c.576 0 1.27-.357 2.055-1.05v-.904c-.694-.457-1.342-.667-1.908-.667-.457 0-.813.119-1.078.338-.237.22-.356.53-.356.931-.027.904.43 1.352 1.287 1.352zm12.528-.667c.548 0 1.15-.237 1.79-.74V7.516h-1.553V5.122h4.803v7.834h1.67v2.338h-4.902v-.84c-1.005.666-2.01 1.004-2.968 1.004-.977 0-1.744-.264-2.292-.812-.547-.548-.812-1.315-.812-2.274v-4.84h-1.525V5.15h4.757v6.4c0 .475.073.813.237.977.174.174.384.265.795.265z" fill="#fff"/><path d="M93.663 12.956H96v2.338h-2.337v-2.338z" fill="#F4B301"/><path d="M21.576 5.241h2.054l.402-1.771c.146-.621.338-1.15.593-1.58.265-.43.576-.785.904-1.077.357-.283.74-.475 1.197-.621A5.34 5.34 0 0128.159 0c.31 0 .594.027.858.046.265.045.503.091.722.146.219.045.401.118.575.191.164.074.31.147.429.192l-1.004 1.48a1.893 1.893 0 00-.694-.284c-.283-.09-.621-.118-.959-.118-.53 0-.959.146-1.315.429-.356.283-.62.785-.785 1.479l-.384 1.67h2.721l-.401 1.672h-2.703l-2.968 12.929h-1.98l2.967-12.93h-2.055l.393-1.661zm26.479-.237h1.67l.503-2.1 2.054-.84-.666 2.94h2.1l-.457 1.862h-2.1l-1.315 5.524c-.027.119-.073.265-.09.384a2.132 2.132 0 00-.046.429c0 .283.073.502.237.62.164.12.402.193.74.193.356 0 .812-.092 1.342-.31l.164 1.387a7.414 7.414 0 01-.977.383 3.74 3.74 0 01-1.05.147c-.402 0-.785-.046-1.123-.146a1.748 1.748 0 01-.84-.503c-.22-.237-.356-.53-.43-.904-.072-.383-.045-.84.074-1.36l1.433-5.807h-1.652l.429-1.9z" fill="#fff"/></svg>
